X:1
T:Title
L:1/8
M:4/4
I:linebreak $
K:F
V:1 treble nm="Voice"
V:1
"Dm" fedc AGFD | B,CDF EF D/D/D |"C" ECEG c2 ef | egce dceg |"Dm" fedc AGFD | B,CDF EF D/D/D | %6
"C" ECEG c2 ef |1 egce"Dm" d3 f :|2 egce"Dm" d4 |:"Dm" affe fedc | Adea Adea |"C" geed edcd | %12
 egce dcea |"Dm" affe fedc | Adea Adea |"C7" bagf efgf |1 egce"Dm" d3 a :|2 egce"Dm" d3 f |] %18
